X:1
T:Holy Manna
T:Holy Manna
T:William Moore, 1825
T:Public Domain Courtesy of the Cyber Hymnal™
C:William Moore, 1825
Z:Public Domain
Z:Courtesy of the Cyber Hymnal™
%%score ( 1 2 ) ( 3 4 )
L:1/8
Q:1/4=110
M:4/4
K:Ab
V:1 treble 
V:2 treble 
V:3 bass 
V:4 bass 
V:1
 [CE]2 ([CE][DF]) [CA]2 [CA]2 | [EB]2 ([EB][CA]) ([Ec][DB]) ([CA][DF]) | %2
 [CE]2 ([CE][DF]) [CA]2 [CA]2 | [Ec]2 [DB]2 [CA]4 | [CE]2 ([CE][DF]) [CA]2 [CA]2 | %5
 [EB]2 ([EB][CA]) ([Ec][DB]) ([CA][DF]) [CE]2 ([CE][DF]) [CA]2 [CA]2 | [Ec]2 [DB]2 [CA]4 | %7
 [Ec]2 [Ae]2 [Ae]2 [Ae]2 | [Ec]2 ([Ec][CA]) [DB]2 [CA]2 | [Ec]2 [Ae]2 [Ae]2 [Ae]2 | %10
 [Ec]2 (cA) [GB]4 | [CE]2 ([CE][DF]) [CA]2 [CA]2 | [EB]2 ([EB][CA]) ([Ec][DB]) ([CA][DF]) | %13
 [CE]2 ([CE][DF]) [CA]2 [CA]2 | [Ec]2 [DB]2 [CA]4 |] %15
V:2
 x8 | x8 | x8 | x8 | x8 | x16 | x8 | x8 | x8 | x8 | x2 A2 x4 | x8 | x8 | x8 | x8 |] %15
V:3
 [A,,A,]2 [A,,A,]2 [A,,E,]2 [A,,E,]2 | [E,G,]2 (G,A,) A,2 [A,,A,]2 | %2
 [A,,A,]2 [A,,A,]2 [A,,E,]2 [A,,E,]2 | [E,A,]2 [E,G,]2 [A,,A,]4 | %4
 [A,,A,]2 [A,,A,]2 [A,,E,]2 [A,,E,]2 | %5
 [E,G,]2 (G,A,) [A,,A,]2 [A,,A,]2 [A,,A,]2 [A,,E,]2 [A,,E,]2 x2 | [E,A,]2 [E,G,]2 [A,,A,]4 | %7
 A,2 [A,C]2 [A,C]2 [A,C]2 | A,2 A,2 [E,G,]2 [A,,A,]2 | A,2 [A,C]2 [A,C]2 [A,C]2 | %10
 [A,,E]2 [A,,E]2 [E,E]4 | [A,,A,]2 [A,,A,]2 [A,,E,]2 [A,,E,]2 | [E,G,]2 (G,A,) A,2 [A,,A,]2 | %13
 [A,,A,]2 [A,,A,]2 [A,,E,]2 [A,,E,]2 | [E,A,]2 [E,G,]2 [A,,E,]4 |] %15
V:4
 x8 | x2 E,2 A,2 x2 | x8 | x8 | x8 | x2 E,2 A,2 x10 | x8 | A,2 x6 | A,2 A,2 x4 | A,2 x6 | x8 | x8 | %12
 x2 E,2 A,2 x2 | x8 | x8 |] %15

